X:15
T:LOONEY McTWOLTER -- JIG.
R:jig
B:Coles pg. 75.7
Z:John B. Walsh, <walsh:mat:h.ubc.ca> 5/17/02
M:6/8
L:1/8
K:G
vkG3 kB3|AGA BGE|DEF (Gc/d/"4"e)|{e}dcB (A2G)|
kG3 kB3|AGA BGE|DEF (Gc/d/"4"e)|{e}dcB (A2G)||
Bcd de=f|edc BAG|Bcd de=f|e=fd g3|
GBd g^fe|dcB (A2G)|DEF (G2"4".e)|dcB (A2G)||
